HTML/img/Semaphore/Semaphore_Ready.svg

<?xml version="1.0" encoding="UTF-8" standalone="no"?>
<!-- Created with Inkscape (http://www.inkscape.org/) -->
<svg
   xmlns:dc="http://purl.org/dc/elements/1.1/"
   xmlns:cc="http://web.resource.org/cc/"
   xmlns:rdf="http://www.w3.org/1999/02/22-rdf-syntax-ns#"
   xmlns:svg="http://www.w3.org/2000/svg"
   xmlns="http://www.w3.org/2000/svg"
   xmlns:sodipodi="http://inkscape.sourceforge.net/DTD/sodipodi-0.dtd"
   xmlns:inkscape="http://www.inkscape.org/namespaces/inkscape"
   width="600"
   height="500"
   id="svg2"
   sodipodi:version="0.32"
   inkscape:version="0.43"
   version="1.0"
   sodipodi:docbase="C:\Documents and Settings\David Nelson\Archives\Svg"
   sodipodi:docname="Semaphore Ready.svg">
  <defs
     id="defs4" />
  <sodipodi:namedview
     id="base"
     pagecolor="#ffffff"
     bordercolor="#666666"
     borderopacity="1.0"
     inkscape:pageopacity="0.0"
     inkscape:pageshadow="2"
     inkscape:zoom="1"
     inkscape:cx="275.3919"
     inkscape:cy="168.86861"
     inkscape:document-units="px"
     inkscape:current-layer="layer1"
     showgrid="true"
     inkscape:grid-points="true"
     inkscape:window-width="756"
     inkscape:window-height="540"
     inkscape:window-x="361"
     inkscape:window-y="29" />
  <metadata
     id="metadata7">
    <rdf:RDF>
      <cc:Work
         rdf:about="">
        <dc:format>image/svg+xml</dc:format>
        <dc:type
           rdf:resource="http://purl.org/dc/dcmitype/StillImage" />
      </cc:Work>
    </rdf:RDF>
  </metadata>
  <g
     inkscape:label="Layer 1"
     inkscape:groupmode="layer"
     id="layer1">
    <rect
       transform="matrix(4.360635e-25,1,-1,4.360635e-25,0,0)"
       ry="10"
       rx="10"
       y="-360"
       x="240"
       height="20"
       width="70"
       id="rect8008"
       style="fill:#000000;fill-opacity:1;fill-rule:evenodd;stroke:none;stroke-width:2.5;stroke-miterlimit:4;stroke-dasharray:none;stroke-opacity:1" />
    <path
       sodipodi:type="arc"
       style="opacity:1;fill:#000000;fill-opacity:1;fill-rule:evenodd;stroke:none;stroke-width:2.5;stroke-miterlimit:4;stroke-dasharray:none;stroke-opacity:1"
       id="path7712"
       sodipodi:cx="250"
       sodipodi:cy="200"
       sodipodi:rx="25"
       sodipodi:ry="25"
       d="M 275 200 A 25 25 0 1 1  225,200 A 25 25 0 1 1  275 200 z"
       transform="translate(50,10)" />
    <rect
       style="opacity:1;fill:#000000;fill-opacity:1;fill-rule:evenodd;stroke:none;stroke-width:2.5;stroke-miterlimit:4;stroke-dasharray:none;stroke-opacity:1"
       id="rect7718"
       width="70"
       height="160"
       x="265"
       y="240"
       rx="20"
       ry="21.333334" />
    <rect
       transform="matrix(-1.090978e-18,1,-1,-1.090978e-18,0,0)"
       style="fill:#000000;fill-opacity:1;fill-rule:evenodd;stroke:none;stroke-width:2.5;stroke-miterlimit:4;stroke-dasharray:none;stroke-opacity:1"
       id="rect7901"
       width="70"
       height="20"
       x="240"
       y="-260"
       rx="10"
       ry="10" />
    <rect
       transform="matrix(0.707107,0.707107,-0.707107,0.707107,0,0)"
       style="fill:#000000;fill-opacity:1;fill-rule:evenodd;stroke:#000000;stroke-width:0.99999969;stroke-miterlimit:4;stroke-dasharray:none;stroke-opacity:1"
       id="rect7903"
       width="200.00006"
       height="10.000003"
       x="380.37323"
       y="26.819733" />
    <path
       id="path7907"
       d="M 257.07116,436.42138 L 320.71079,372.78175 L 384.35042,436.42138 L 320.71079,500.06102 L 257.07116,436.42138 z "
       style="fill:#ffff00;fill-opacity:1;fill-rule:evenodd;stroke:none;stroke-width:1;stroke-miterlimit:4;stroke-dasharray:none;stroke-opacity:1" />
    <path
       style="fill:#ff0000;fill-opacity:1;fill-rule:evenodd;stroke:none;stroke-width:1;stroke-miterlimit:4;stroke-dasharray:none;stroke-opacity:1"
       d="M 320.71079,372.78175 L 384.35042,436.42138 L 320.71079,500.06102 L 320.71079,372.78175 z "
       id="path7909" />
    <rect
       transform="matrix(-0.707107,0.707107,-0.707107,-0.707107,0,0)"
       y="-461.08401"
       x="-43.890755"
       height="10.000003"
       width="200.00006"
       id="rect8010"
       style="fill:#000000;fill-opacity:1;fill-rule:evenodd;stroke:#000000;stroke-width:0.99999969;stroke-miterlimit:4;stroke-dasharray:none;stroke-opacity:1" />
    <path
       style="fill:#ffff00;fill-opacity:0;fill-rule:evenodd;stroke:#000000;stroke-width:1;stroke-miterlimit:4;stroke-dasharray:none;stroke-opacity:1;stroke-linejoin:round"
       d="M 257.07116,436.42138 L 320.71079,372.78175 L 384.35042,436.42138 L 320.71079,500.06102 L 257.07116,436.42138 z "
       id="path4836" />
    <path
       style="fill:#ffff00;fill-opacity:1;fill-rule:evenodd;stroke:none;stroke-width:1;stroke-miterlimit:4;stroke-dasharray:none;stroke-opacity:1"
       d="M 342.92894,436.42161 L 279.28931,500.06124 L 215.64968,436.42161 L 279.28931,372.78198 L 342.92894,436.42161 z "
       id="path8014" />
    <path
       id="path8016"
       d="M 279.28931,500.06124 L 215.64968,436.42161 L 279.28931,372.78198 L 279.28931,500.06124 z "
       style="fill:#ff0000;fill-opacity:1;fill-rule:evenodd;stroke:none;stroke-width:1;stroke-miterlimit:4;stroke-dasharray:none;stroke-opacity:1" />
    <path
       id="path4838"
       d="M 342.92894,436.42161 L 279.28931,500.06124 L 215.64968,436.42161 L 279.28931,372.78198 L 342.92894,436.42161 z "
       style="fill:#ffff00;fill-opacity:0;fill-rule:evenodd;stroke:#000000;stroke-width:1;stroke-miterlimit:4;stroke-dasharray:none;stroke-opacity:1;stroke-linejoin:round" />
  </g>
</svg>

<svg xmlns="http://www.w3.org/2000/svg" width="600" height="500" version="1">
    <rect width="70" height="20" x="240" y="-360" fill-rule="evenodd" rx="10" ry="10" transform="rotate(90)"/>
    <path fill-rule="evenodd" d="M325 210a25 25 0 1 1-50 0 25 25 0 1 1 50 0z"/>
    <rect width="70" height="160" x="265" y="240" fill-rule="evenodd" rx="20" ry="21.333"/>
    <rect width="70" height="20" x="240" y="-260" fill-rule="evenodd" rx="10" ry="10" transform="rotate(90)"/>
    <path fill-rule="evenodd" stroke="#000" d="M250 287.929L391.42 429.35l-7.07 7.071-141.422-141.42z"/>
    <path fill="#ff0" fill-rule="evenodd" d="M257.071 436.421l63.64-63.64 63.64 63.64-63.64 63.64-63.64-63.64z"/>
    <path fill="red" fill-rule="evenodd" d="M320.71 372.782l63.64 63.64-63.64 63.639v-127.28z"/>
    <path fill-rule="evenodd" stroke="#000" d="M357.071 295L215.65 436.421l-7.071-7.07L350 287.928z"/>
    <path fill="none" stroke="#000" stroke-linejoin="round" d="M257.071 436.421l63.64-63.64 63.64 63.64-63.64 63.64-63.64-63.64z"/>
    <path fill="#ff0" fill-rule="evenodd" d="M342.929 436.422l-63.64 63.64-63.64-63.64 63.64-63.64 63.64 63.64z"/>
    <path fill="red" fill-rule="evenodd" d="M279.29 500.061l-63.64-63.64 63.64-63.639v127.28z"/>
    <path fill="none" stroke="#000" stroke-linejoin="round" d="M342.929 436.422l-63.64 63.64-63.64-63.64 63.64-63.64 63.64 63.64z"/>
</svg>
